X:1
T:Lamps Trimmed and Burning
T:Lamps Trimmed and Burning
T:Daniel Webster Crist, 1891
T:Eden Reeder Latta
T:Public Domain Courtesy of the Cyber Hymnal™
T:Public Domain Courtesy of the Cyber Hymnal™
C:Daniel Webster Crist, 1891
Z:Public Domain
Z:Courtesy of the Cyber Hymnal™
%%score ( 1 2 ) 3
L:1/8
Q:1/4=100
M:4/4
K:Gb
V:1 treble 
V:2 treble 
V:3 bass 
V:1
 D>D | [DG][DG][DG][DG] [DG]<[DG] [DG]>[DA] | [GB][GB][GB][GB] [GB]2 [DG][DA] | %3
w: 1.~Let your|lamps be trimmed and burn- ing, Lest your|feet may go a- stray! If you|
w: 2.~Let your|lamps be trimmed and burn- ing, Let there|be of oil no lack! Be not|
w: 3.~Let your|lamps be trimmed and burn- ing, Burn- ing|for e- ter- ni- ty! Read- y|
w: 4.~Let your|lamps be trimmed and burn- ing, For the|mid- night draw- eth near! When the|
 [GB][GB][GB][GB] [GB]<[Gd] G[GA] | [GB]<[GB] [GB][DA] [DG]2 z2 || %5
w: are the Lord’s dis- ci- ple, Un- to|sin- ners show the way!|
w: like the fool- ish vir- gins, From the|ent- rance driv- en back!|
w: for the Lord’s ap- pear- ing, When- so-|ev- er it may be!|
w: Bride- groom quick- ly com- eth, And we|all His voice shall hear!|
"^Refrain" [Gd]3 [Gd] [Ge][Gd] [Gd]>[Gd] | [Gd] [GB]6 z | [GB]3 [GB] [Gc][GB][GB][GB] | %8
w: |||
w: We’ll go out with joy to|meet Him,|We’ll go out with joy to|
w: |||
w: |||
 [GB]<[FA] [DG]>[DG] [FA][FA] !fermata![GB]2 | [Gd]3 [Gd] [Ge][Gd] [Gd]>[Gd] | %10
w: ||
w: meet Him, At the mid- night hour;|If our lamps are trimmed and|
w: ||
w: ||
 [Gd]<[GB] G>[GA] [GB]<[GB] [GB]>[GB] | [GB]<[Gd] G[GA] [GB]2 [DA]2 | [DG]6 |] %13
w: |||
w: burn- ing, When He com- eth, when He|com- eth, At the mid- night|hour!|
w: |||
w: |||
V:2
 D>D | x8 | x8 | x6 G x | x8 || x8 | x8 | x8 | x8 | x8 | x2 G3/2 x9/2 | x2 G x5 | x6 |] %13
V:3
 [G,B,]>[G,B,] | [G,B,][G,B,][G,B,][G,B,] [G,B,]<[G,B,] [G,B,]>[G,C] | %2
 [G,D][G,D][G,D][G,D] [G,D]2 [G,B,][G,C] | [G,D][G,D][G,D][G,D] [G,D]<[G,B,] [G,B,][G,C] | %4
 [D,D]<[D,D] [D,D][D,C] [G,B,]2 z2 || [G,B,]3 [G,B,] [G,C][G,B,] [G,B,]>[G,B,] | [G,B,] [G,D]6 z | %7
 [G,D]3 [G,D] [G,E][G,D][G,D][G,D] | [D,D]<[D,D] [D,B,]>[D,B,] [D,C][D,C] [G,D]2 | %9
 [G,B,]3 [G,B,] [G,C][G,B,] [G,B,]>[G,B,] | [G,B,]<[G,D] [G,B,]>[G,C] [G,D]<[G,D] [G,D]>[G,D] | %11
 [G,D]<[G,B,] [D,B,][D,C] [D,D]2 [D,C]2 | [G,B,]6 |] %13

